package/converter/svg/regular/paragraph-left.svg

<svg xmlns="http://www.w3.org/2000/svg" viewBox="0 0 384 512"><!-- Font Awesome Pro 6.0.0-alpha2 by @fontawesome - https://fontawesome.com License - https://fontawesome.com/license (Commercial License) --><path d="M143.977 224H175.969L176 296C176 309.254 186.746 320 200 320S224 309.254 224 296V48H256V296C256 309.254 266.746 320 280 320S304 309.254 304 296V48H328C341.254 48 352 37.254 352 24C352 10.744 341.254 0 328 0H143.977C79.99 0 32 48 32 112S79.99 224 143.977 224ZM143.977 48H175.969V176H143.977C106.359 176 79.99 149.625 79.99 112S106.359 48 143.977 48ZM360 392H86.547L120.062 361.844C129.906 352.969 130.719 337.812 121.844 327.938C112.938 318.094 97.781 317.281 87.938 326.156L7.938 398.156C2.875 402.719 0 409.188 0 416S2.875 429.281 7.938 433.844L87.938 505.844C92.531 509.969 98.281 512 104 512C110.562 512 117.094 509.312 121.844 504.062C130.719 494.187 129.906 479.031 120.062 470.156L86.547 440H360C373.25 440 384 429.25 384 416S373.25 392 360 392Z"/></svg>

<svg xmlns="http://www.w3.org/2000/svg" viewBox="0 0 384 512"><!--! Font Awesome Pro 6.6.0 by @fontawesome - https://fontawesome.com License - https://fontawesome.com/license (Commercial License) Copyright 2024 Fonticons, Inc. --><path d="M304 48l24 0c13.3 0 24-10.7 24-24s-10.7-24-24-24L224 0 200 0 168 0 144 0C82.1 0 32 50.1 32 112s50.1 112 112 112l32 0 0 72c0 13.3 10.7 24 24 24s24-10.7 24-24l0-72 0-24 0-152 32 0 0 248c0 13.3 10.7 24 24 24s24-10.7 24-24l0-248zM176 48l0 128-32 0c-35.3 0-64-28.7-64-64s28.7-64 64-64l24 0 8 0zM120.1 361.8c9.9-8.9 10.7-24 1.8-33.9s-24-10.7-33.9-1.8l-80 72C2.9 402.7 0 409.2 0 416s2.9 13.3 7.9 17.8l80 72c9.9 8.9 25 8.1 33.9-1.8s8.1-25-1.8-33.9L86.5 440 360 440c13.3 0 24-10.7 24-24s-10.7-24-24-24L86.5 392l33.5-30.2z"/></svg>
